Numix-Circle/48x48/apps/bovo.svg

<?xml version="1.0" encoding="UTF-8" standalone="no"?>
<svg
   xmlns:dc="http://purl.org/dc/elements/1.1/"
   xmlns:cc="http://creativecommons.org/ns#"
   xmlns:rdf="http://www.w3.org/1999/02/22-rdf-syntax-ns#"
   xmlns:svg="http://www.w3.org/2000/svg"
   xmlns="http://www.w3.org/2000/svg"
   xmlns:sodipodi="http://sodipodi.sourceforge.net/DTD/sodipodi-0.dtd"
   xmlns:inkscape="http://www.inkscape.org/namespaces/inkscape"
   viewBox="0 0 48 48"
   id="svg2"
   version="1.1"
   inkscape:version="0.91 r13725"
   sodipodi:docname="bovo2.svg">
  <metadata
     id="metadata65">
    <rdf:RDF>
      <cc:Work
         rdf:about="">
        <dc:format>image/svg+xml</dc:format>
        <dc:type
           rdf:resource="http://purl.org/dc/dcmitype/StillImage" />
        <dc:title></dc:title>
      </cc:Work>
    </rdf:RDF>
  </metadata>
  <sodipodi:namedview
     pagecolor="#ffffff"
     bordercolor="#666666"
     borderopacity="1"
     objecttolerance="10"
     gridtolerance="10"
     guidetolerance="10"
     inkscape:pageopacity="0"
     inkscape:pageshadow="2"
     inkscape:window-width="1366"
     inkscape:window-height="713"
     id="namedview63"
     showgrid="false"
     showguides="false"
     inkscape:zoom="1"
     inkscape:cx="24.12264"
     inkscape:cy="22.938447"
     inkscape:window-x="0"
     inkscape:window-y="28"
     inkscape:window-maximized="1"
     inkscape:current-layer="svg2">
    <inkscape:grid
       type="xygrid"
       id="grid4193" />
  </sodipodi:namedview>
  <defs
     id="defs4">
    <linearGradient
       id="linearGradient3764"
       x1="1"
       x2="47"
       gradientUnits="userSpaceOnUse"
       gradientTransform="matrix(0,-1,1,0,-1.5e-6,47.999998)">
      <stop
         stop-color="#e4e4e4"
         stop-opacity="1"
         id="stop7" />
      <stop
         offset="1"
         stop-color="#eee"
         stop-opacity="1"
         id="stop9" />
    </linearGradient>
  </defs>
  <g
     id="g21">
    <path
       d="m 36.31 5 c 5.859 4.062 9.688 10.831 9.688 18.5 c 0 12.426 -10.07 22.5 -22.5 22.5 c -7.669 0 -14.438 -3.828 -18.5 -9.688 c 1.037 1.822 2.306 3.499 3.781 4.969 c 4.085 3.712 9.514 5.969 15.469 5.969 c 12.703 0 23 -10.298 23 -23 c 0 -5.954 -2.256 -11.384 -5.969 -15.469 c -1.469 -1.475 -3.147 -2.744 -4.969 -3.781 z m 4.969 3.781 c 3.854 4.113 6.219 9.637 6.219 15.719 c 0 12.703 -10.297 23 -23 23 c -6.081 0 -11.606 -2.364 -15.719 -6.219 c 4.16 4.144 9.883 6.719 16.219 6.719 c 12.703 0 23 -10.298 23 -23 c 0 -6.335 -2.575 -12.06 -6.719 -16.219 z"
       opacity="0.05"
       id="path23" />
    <path
       d="m 41.28 8.781 c 3.712 4.085 5.969 9.514 5.969 15.469 c 0 12.703 -10.297 23 -23 23 c -5.954 0 -11.384 -2.256 -15.469 -5.969 c 4.113 3.854 9.637 6.219 15.719 6.219 c 12.703 0 23 -10.298 23 -23 c 0 -6.081 -2.364 -11.606 -6.219 -15.719 z"
       opacity="0.1"
       id="path25" />
    <path
       d="m 31.25 2.375 c 8.615 3.154 14.75 11.417 14.75 21.13 c 0 12.426 -10.07 22.5 -22.5 22.5 c -9.708 0 -17.971 -6.135 -21.12 -14.75 a 23 23 0 0 0 44.875 -7 a 23 23 0 0 0 -16 -21.875 z"
       opacity="0.2"
       id="path27" />
  </g>
  <g
     id="g29">
    <path
       d="m 24 1 c 12.703 0 23 10.297 23 23 c 0 12.703 -10.297 23 -23 23 -12.703 0 -23 -10.297 -23 -23 0 -12.703 10.297 -23 23 -23 z"
       fill="url(#linearGradient3764)"
       fill-opacity="1"
       id="path31" />
  </g>
  <g
     id="g33" />
  <g
     id="g59">
    <path
       d="m 40.03 7.531 c 3.712 4.084 5.969 9.514 5.969 15.469 0 12.703 -10.297 23 -23 23 c -5.954 0 -11.384 -2.256 -15.469 -5.969 4.178 4.291 10.01 6.969 16.469 6.969 c 12.703 0 23 -10.298 23 -23 0 -6.462 -2.677 -12.291 -6.969 -16.469 z"
       opacity="0.1"
       id="path61" />
  </g>
  <g
     id="g4265"
     transform="translate(1,1)">
    <g
       id="g4267"
       transform="translate(4,1)" />
  </g>
  <g
     id="g4207">
    <path
       inkscape:connector-curvature="0"
       id="path4196"
       d="m 24,12 0,12 -12,0 0,2 12,0 0,12 2,0 0,-12 12,0 0,-2 -12,0 0,-12 -2,0 z m 8,1 a 5,5 0 0 0 -5,5 5,5 0 0 0 5,5 5,5 0 0 0 5,-5 5,5 0 0 0 -5,-5 z m -17.185547,0.408203 -1.414062,1.414063 3.18164,3.18164 -3.18164,3.181641 1.414062,1.414062 3.181641,-3.18164 3.18164,3.18164 1.414063,-1.414062 -3.181641,-3.181641 3.181641,-3.18164 -1.414063,-1.414063 -3.18164,3.181641 -3.181641,-3.181641 z M 32,15 a 3,3 0 0 1 3,3 3,3 0 0 1 -3,3 3,3 0 0 1 -3,-3 3,3 0 0 1 3,-3 z M 18,27 a 5,5 0 0 0 -5,5 5,5 0 0 0 5,5 5,5 0 0 0 5,-5 5,5 0 0 0 -5,-5 z m 10.814453,0.408203 -1.414062,1.414063 3.18164,3.18164 -3.18164,3.181641 1.414062,1.414062 3.181641,-3.18164 3.18164,3.18164 1.414063,-1.414062 -3.181641,-3.181641 3.181641,-3.18164 -1.414063,-1.414063 -3.18164,3.181641 -3.181641,-3.181641 z M 18,29 a 3,3 0 0 1 3,3 3,3 0 0 1 -3,3 3,3 0 0 1 -3,-3 3,3 0 0 1 3,-3 z"
       style="opacity:1;fill:#000000;fill-opacity:0.09803922;fill-rule:nonzero;stroke:none;stroke-width:2;stroke-miterlimit:4;stroke-dasharray:none;stroke-dashoffset:0;stroke-opacity:1" />
    <path
       id="rect4156"
       d="M 23 11 L 23 23 L 11 23 L 11 25 L 23 25 L 23 37 L 25 37 L 25 25 L 37 25 L 37 23 L 25 23 L 25 11 L 23 11 z "
       style="opacity:1;fill:#636363;fill-opacity:1;fill-rule:nonzero;stroke:none;stroke-width:2;stroke-miterlimit:4;stroke-dasharray:none;stroke-dashoffset:0;stroke-opacity:1" />
    <path
       id="path4160"
       d="M 31 12 A 5 5 0 0 0 26 17 A 5 5 0 0 0 31 22 A 5 5 0 0 0 36 17 A 5 5 0 0 0 31 12 z M 31 14 A 3 3 0 0 1 34 17 A 3 3 0 0 1 31 20 A 3 3 0 0 1 28 17 A 3 3 0 0 1 31 14 z "
       style="opacity:1;fill:#e67878;fill-opacity:1;fill-rule:nonzero;stroke:none;stroke-width:2;stroke-miterlimit:4;stroke-dasharray:none;stroke-dashoffset:0;stroke-opacity:1" />
    <path
       inkscape:connector-curvature="0"
       style="opacity:1;fill:#e67878;fill-opacity:1;fill-rule:nonzero;stroke:none;stroke-width:2;stroke-miterlimit:4;stroke-dasharray:none;stroke-dashoffset:0;stroke-opacity:1"
       d="m 17,26 a 5,5 0 0 0 -5,5 5,5 0 0 0 5,5 5,5 0 0 0 5,-5 5,5 0 0 0 -5,-5 z m 0,2 a 3,3 0 0 1 3,3 3,3 0 0 1 -3,3 3,3 0 0 1 -3,-3 3,3 0 0 1 3,-3 z"
       id="path4186" />
    <path
       id="rect4189"
       d="M 13.814453 12.408203 L 12.400391 13.822266 L 15.582031 17.003906 L 12.400391 20.185547 L 13.814453 21.599609 L 16.996094 18.417969 L 20.177734 21.599609 L 21.591797 20.185547 L 18.410156 17.003906 L 21.591797 13.822266 L 20.177734 12.408203 L 16.996094 15.589844 L 13.814453 12.408203 z "
       style="opacity:1;fill:#8484bc;fill-opacity:1;fill-rule:nonzero;stroke:none;stroke-width:2;stroke-miterlimit:4;stroke-dasharray:none;stroke-dashoffset:0;stroke-opacity:1" />
    <path
       inkscape:connector-curvature="0"
       style="opacity:1;fill:#8484bc;fill-opacity:1;fill-rule:nonzero;stroke:none;stroke-width:2;stroke-miterlimit:4;stroke-dasharray:none;stroke-dashoffset:0;stroke-opacity:1"
       d="M 27.814062,26.408594 26.4,27.822657 29.58164,31.004297 26.4,34.185938 27.814062,35.6 l 3.181641,-3.18164 3.18164,3.18164 1.414063,-1.414062 -3.181641,-3.181641 3.181641,-3.18164 -1.414063,-1.414063 -3.18164,3.181641 -3.181641,-3.181641 z"
       id="path4194" />
  </g>
</svg>

<svg xmlns="http://www.w3.org/2000/svg" viewBox="0 0 48 48"><defs><linearGradient id="linearGradient3764" x1="1" x2="47" gradientUnits="userSpaceOnUse" gradientTransform="matrix(0,-1,1,0,-1.5e-6,47.999998)"><stop stop-color="#e4e4e4" stop-opacity="1"/><stop offset="1" stop-color="#eee" stop-opacity="1"/></linearGradient></defs><g><path d="m 36.31 5 c 5.859 4.062 9.688 10.831 9.688 18.5 c 0 12.426 -10.07 22.5 -22.5 22.5 c -7.669 0 -14.438 -3.828 -18.5 -9.688 c 1.037 1.822 2.306 3.499 3.781 4.969 c 4.085 3.712 9.514 5.969 15.469 5.969 c 12.703 0 23 -10.298 23 -23 c 0 -5.954 -2.256 -11.384 -5.969 -15.469 c -1.469 -1.475 -3.147 -2.744 -4.969 -3.781 z m 4.969 3.781 c 3.854 4.113 6.219 9.637 6.219 15.719 c 0 12.703 -10.297 23 -23 23 c -6.081 0 -11.606 -2.364 -15.719 -6.219 c 4.16 4.144 9.883 6.719 16.219 6.719 c 12.703 0 23 -10.298 23 -23 c 0 -6.335 -2.575 -12.06 -6.719 -16.219 z" opacity="0.05"/><path d="m 41.28 8.781 c 3.712 4.085 5.969 9.514 5.969 15.469 c 0 12.703 -10.297 23 -23 23 c -5.954 0 -11.384 -2.256 -15.469 -5.969 c 4.113 3.854 9.637 6.219 15.719 6.219 c 12.703 0 23 -10.298 23 -23 c 0 -6.081 -2.364 -11.606 -6.219 -15.719 z" opacity="0.1"/><path d="m 31.25 2.375 c 8.615 3.154 14.75 11.417 14.75 21.13 c 0 12.426 -10.07 22.5 -22.5 22.5 c -9.708 0 -17.971 -6.135 -21.12 -14.75 a 23 23 0 0 0 44.875 -7 a 23 23 0 0 0 -16 -21.875 z" opacity="0.2"/></g><g><path d="m 24 1 c 12.703 0 23 10.297 23 23 c 0 12.703 -10.297 23 -23 23 -12.703 0 -23 -10.297 -23 -23 0 -12.703 10.297 -23 23 -23 z" fill="url(#linearGradient3764)" fill-opacity="1"/></g><g><path d="m 40.03 7.531 c 3.712 4.084 5.969 9.514 5.969 15.469 0 12.703 -10.297 23 -23 23 c -5.954 0 -11.384 -2.256 -15.469 -5.969 4.178 4.291 10.01 6.969 16.469 6.969 c 12.703 0 23 -10.298 23 -23 0 -6.462 -2.677 -12.291 -6.969 -16.469 z" opacity="0.1"/></g><g><path d="m 24 12 0 12 -12 0 0 2 12 0 0 12 2 0 0 -12 12 0 0 -2 -12 0 0 -12 -2 0 z m 8 1 a 5 5 0 0 0 -5 5 5 5 0 0 0 5 5 5 5 0 0 0 5 -5 5 5 0 0 0 -5 -5 z m -17.19 0.408 -1.414 1.414 3.182 3.182 -3.182 3.182 1.414 1.414 3.182 -3.182 3.182 3.182 1.414 -1.414 -3.182 -3.182 3.182 -3.182 -1.414 -1.414 -3.182 3.182 -3.182 -3.182 z m 17.19 1.592 a 3 3 0 0 1 3 3 3 3 0 0 1 -3 3 3 3 0 0 1 -3 -3 3 3 0 0 1 3 -3 z m -14 12 a 5 5 0 0 0 -5 5 5 5 0 0 0 5 5 5 5 0 0 0 5 -5 5 5 0 0 0 -5 -5 z m 10.814 0.408 -1.414 1.414 3.182 3.182 -3.182 3.182 1.414 1.414 3.182 -3.182 3.182 3.182 1.414 -1.414 -3.182 -3.182 3.182 -3.182 -1.414 -1.414 -3.182 3.182 -3.182 -3.182 z m -10.814 1.592 a 3 3 0 0 1 3 3 3 3 0 0 1 -3 3 3 3 0 0 1 -3 -3 3 3 0 0 1 3 -3 z" opacity="1" fill="#000" fill-rule="nonzero" stroke="none" fill-opacity="0.098"/><path d="m 23 11 l 0 12 l -12 0 l 0 2 l 12 0 l 0 12 l 2 0 l 0 -12 l 12 0 l 0 -2 l -12 0 l 0 -12 l -2 0 z" opacity="1" fill="#636363" fill-rule="nonzero" stroke="none" fill-opacity="1"/><path d="M 31 12 A 5 5 0 0 0 26 17 A 5 5 0 0 0 31 22 A 5 5 0 0 0 36 17 A 5 5 0 0 0 31 12 z M 31 14 A 3 3 0 0 1 34 17 A 3 3 0 0 1 31 20 A 3 3 0 0 1 28 17 A 3 3 0 0 1 31 14 z" opacity="1" fill="#e67878" fill-rule="nonzero" stroke="none" fill-opacity="1"/><path d="m 17 26 a 5 5 0 0 0 -5 5 5 5 0 0 0 5 5 5 5 0 0 0 5 -5 5 5 0 0 0 -5 -5 z m 0 2 a 3 3 0 0 1 3 3 3 3 0 0 1 -3 3 3 3 0 0 1 -3 -3 3 3 0 0 1 3 -3 z" opacity="1" fill="#e67878" fill-rule="nonzero" stroke="none" fill-opacity="1"/><path d="m 13.814 12.408 l -1.414 1.414 l 3.182 3.182 l -3.182 3.182 l 1.414 1.414 l 3.182 -3.182 l 3.182 3.182 l 1.414 -1.414 l -3.182 -3.182 l 3.182 -3.182 l -1.414 -1.414 l -3.182 3.182 l -3.182 -3.182 z" opacity="1" fill="#8484bc" fill-rule="nonzero" stroke="none" fill-opacity="1"/><path d="m 27.814 26.409 -1.414 1.414 3.182 3.182 -3.182 3.182 1.414 1.414 l 3.182 -3.182 3.182 3.182 1.414 -1.414 -3.182 -3.182 3.182 -3.182 -1.414 -1.414 -3.182 3.182 -3.182 -3.182 z" opacity="1" fill="#8484bc" fill-rule="nonzero" stroke="none" fill-opacity="1"/></g></svg>
